X:1
T:Standin In The Need of Prayer
T:In bright mansions above
T:Copyright 1881 by The Riverside Press
T:Rodeheaver's Plantation Melodies
T:Rodeheaver's Plantation Melodies
Z:Rodeheaver's Plantation Melodies
%%score [ 1 2 3 4 ]
L:1/8
Q:1/4=70
M:4/4
K:D
V:1 treble nm="Soprano" snm="S."
V:2 treble nm="Alto" snm="A."
V:3 bass nm="Tenor" snm="T."
V:4 bass nm="Bass" snm="B."
V:1
 DD | F2 F>F A2 AF | E2 E>F E2 FA | B>A dB ABDA | F2 E>E D2!fine! :| A2 | BABe d2 A>d | %7
w: |||||My|fa- ther's gone to glo- ry. I|
w: |||||My|bro- ther's * * * * *|
w: |||||The|chris- tians * * * * *|
 B>A FA B2 FA | B>A dB ABDA | F2 E>E D2 |] %10
w: want to live there too, Lord. I|want to live up yon- der. * *||
w: |||
w: |||
V:2
 DD | D2 D>D F2 FD | C2 C>D C2 DF | G>F BG FGDD | D2 C>C D2 :| z2 | z8 | z8 | z4 z2 DD | %9
w: In bright|man- sions a- bove. In bright|man- sions a- bove Lord. I|want to live up yon- der. In bright|man- sions a- bove.||||In bright|
 D2 C>C D2 |] %10
w: man- sions a- bove.|
V:3
 F,F, | A,2 A,>A, A,2 A,A, | A,2 A,>A, A,2 A,D | D>D DD DDF,A, | A,2 G,>G, F,2 :| z2 | z8 | z8 | %8
 z4 z2 F,A, | A,2 G,>G, F,2 |] %10
V:4
 D,D, | D,2 D,>D, D,2 D,D, | A,,2 A,,>A,, A,,2 D,D, | G,,>G,, G,,G,, D,D,D,F,, | %4
 A,,2 A,,>A,, D,2 :| z2 | z8 | z8 | z4 z2 D,F,, | A,,2 A,,>A,, D,2 |] %10

